img/sun_icon.svg

<svg xmlns="http://www.w3.org/2000/svg" width="24" height="24" fill="none"><path stroke="#000" stroke-linecap="round" stroke-width="2" d="M12 3V2m0 20v-1m9-9h1M2 12h1m15.5-6.5L20 4M4 20l1.5-1.5M4 4l1.5 1.5m13 13L20 20"/><circle cx="12" cy="12" r="4" stroke="#000" stroke-linecap="round" stroke-width="2"/></svg>

<?xml version="1.0" ?><svg fill="none" height="24" viewBox="0 0 24 24" width="24" xmlns="http://www.w3.org/2000/svg"><path d="M12 3V2M12 22V21M21 12H22M2 12H3M18.5 5.5L20 4M4 20L5.5 18.5M4 4L5.5 5.5M18.5 18.5L20 20" stroke="black" stroke-linecap="round" stroke-width="2"/><circle cx="12" cy="12" r="4" stroke="black" stroke-linecap="round" stroke-width="2"/></svg>
